icons/brand/icon_bank-psb_l_white.svg

<?xml version="1.0" encoding="UTF-8"?>
<svg width="30px" height="30px" viewBox="0 0 30 30" version="1.1" xmlns="http://www.w3.org/2000/svg" xmlns:xlink="http://www.w3.org/1999/xlink">
    <!-- Generator: Sketch 49.2 (51160) - http://www.bohemiancoding.com/sketch -->
    <title>icon_bank-psb_l_white</title>
    <desc>Created with Sketch.</desc>
    <defs></defs>
    <g id="page" stroke="none" stroke-width="1" fill="none" fill-rule="evenodd">
        <g id="промсвязьбанк" transform="translate(-60.000000, -6.000000)">
            <g id="icon_bank-psb_l_white" transform="translate(60.000000, 6.000000)">
                <rect id="Rectangle" x="0" y="0" width="30" height="30"></rect>
                <g id="Group" transform="translate(2.000000, 2.000000)" fill="#FFFFFF" fill-rule="nonzero">
                    <path d="M4.875,16.25 L4.875,4.875 C2.18580348,4.88268974 0.00768974304,7.06080348 0,9.75 L0,21.125 C0.00768974304,23.8141965 2.18580348,25.9923103 4.875,26 L16.25,26 C18.9389694,25.9917642 21.1167642,23.8139694 21.125,21.125 L9.75,21.125 C7.06103061,21.1167642 4.8832358,18.9389694 4.875,16.25 Z" id="Shape" opacity="0.3"></path>
                    <path d="M21.125,0 L9.75,0 C7.06103061,0.00823579873 4.8832358,2.18603061 4.875,4.875 L16.25,4.875 C18.9389694,4.8832358 21.1167642,7.06103061 21.125,9.75 L21.125,21.125 C23.8139694,21.1167642 25.9917642,18.9389694 26,16.25 L26,4.875 C25.9917642,2.18603061 23.8139694,0.00823579873 21.125,0 Z" id="Shape"></path>
                    <path d="M19.162,11.865 C18.9875882,11.0678294 18.3450527,10.4573811 17.54,10.324 C18.027,10.162 18.594,9.756 18.594,8.702 C18.594,7.567 17.702,6.999 16.324,6.999 L14.054,6.999 L14.054,9.756 L12.676,9.756 C10.892,9.756 10.487,10.972 10.487,11.621 C10.487,12.594 11.055,12.999 12.028,13.486 C12.677,13.729 13.406,14.054 13.406,14.621 C13.406,14.945 13.082,15.432 12.352,15.432 L11.217,15.432 C11.379,15.108 11.46,14.702 11.46,14.378 C11.46,13.892 11.298,12.189 8.865,12.189 L7,12.189 L7,19 L8.378,19 L8.378,16 L8.946,16.568 L12.595,16.568 C14.298,16.568 15.19,15.676 15.19,14.622 C15.19,14.298 15.109,13.892 15.028,13.73 L16.487,13.73 C18.676,13.73 19.162,12.676 19.162,11.865 Z M8.946,15.757 L8.297,15.757 L8.297,13.487 L8.946,13.487 C9.757,13.487 10.081,13.973 10.081,14.541 C10.081,15.109 9.757,15.757 8.946,15.757 Z M14.216,11.541 L14.216,13.163 C13.892,13.001 13.486,12.839 13.162,12.595 C12.675,12.433 12.27,12.108 12.27,11.622 C12.27,11.379 12.432,10.892 13.243,10.892 L14.865,10.892 L14.216,11.541 Z M15.595,8.216 L16.244,8.216 C17.298,8.216 17.298,8.865 17.298,9.027 C17.298,9.27 17.136,9.838 16.244,9.838 L15.595,9.838 L15.595,8.216 Z M15.513,12.838 L15.513,10.973 L16.324,10.973 C17.297,10.973 17.459,11.46 17.459,11.865 C17.54,12.433 17.216,12.838 16.324,12.838 L15.513,12.838 Z" id="Shape"></path>
                </g>
            </g>
        </g>
    </g>
</svg>

<svg xmlns="http://www.w3.org/2000/svg" width="26" height="26" viewBox="0 0 26 26"><g fill="#FFF"><path d="M4.875 16.25V4.875A4.889 4.889 0 0 0 0 9.75v11.375A4.889 4.889 0 0 0 4.875 26H16.25a4.89 4.89 0 0 0 4.875-4.875H9.75a4.89 4.89 0 0 1-4.875-4.875z" opacity=".3"/><path d="M21.125 0H9.75a4.89 4.89 0 0 0-4.875 4.875H16.25a4.89 4.89 0 0 1 4.875 4.875v11.375A4.89 4.89 0 0 0 26 16.25V4.875A4.89 4.89 0 0 0 21.125 0z"/><path d="M19.162 11.865a1.994 1.994 0 0 0-1.622-1.541c.487-.162 1.054-.568 1.054-1.622 0-1.135-.892-1.703-2.27-1.703h-2.27v2.757h-1.378c-1.784 0-2.189 1.216-2.189 1.865 0 .973.568 1.378 1.541 1.865.649.243 1.378.568 1.378 1.135 0 .324-.324.811-1.054.811h-1.135c.162-.324.243-.73.243-1.054 0-.486-.162-2.189-2.595-2.189H7V19h1.378v-3l.568.568h3.649c1.703 0 2.595-.892 2.595-1.946 0-.324-.081-.73-.162-.892h1.459c2.189 0 2.675-1.054 2.675-1.865zM8.946 15.757h-.649v-2.27h.649c.811 0 1.135.486 1.135 1.054 0 .568-.324 1.216-1.135 1.216zm5.27-4.216v1.622c-.324-.162-.73-.324-1.054-.568-.487-.162-.892-.487-.892-.973 0-.243.162-.73.973-.73h1.622l-.649.649zm1.379-3.325h.649c1.054 0 1.054.649 1.054.811 0 .243-.162.811-1.054.811h-.649V8.216zm-.082 4.622v-1.865h.811c.973 0 1.135.487 1.135.892.081.568-.243.973-1.135.973h-.811z"/></g></svg>
